X: 156
T: When You Return
C: Teton Sioux band 1911-1914
N: Derived from sioux151b.krn
O: South Dakota, U.S.A.
N: Teton Sioux Music by Frances Densmore, 1918
Z: transcribed to **kern format by Craig Sapp
L: 1/8
M: 3/4
Q: 1/4=58
K: Bb clef=bass
%%linebreak <none>
F D D< D (D/ C/) B, [I:setbarnb 2]| 
F D D< F F D | 
F D D< D (D/ C/) B, | 
C C C< D (D/ C/) C ||  
[M:2/4]C2(D/ C/) C | 
B,> B, (B,/ F,3/) | 
B,/ B, C/B,2 | 
B,2C/ B,/ B, ||  
[M:3/4]F, F,2<F,2F, | 
F,6 |]  



